X: 21519
T: Kielder Schottische
R: barndance
M: 4/4
K: Dmajor
D>E|:F>G F>ED2D>A,|B,>D E>D E/E/z D>E|
F>G F>ED2D>A,|1 B,>D E>G F/D/z D>E:|2 B,>D E>G F/D/z D z||
|:A>D (3FED A>D (3FED|B,>D E>D E/E/z2E|
A>D (3FED A>D (3FED|1 B,>D E>G F/D/z2 D:|2 B,>D E>G F/D/z3||
|:f>g (3agf e>f (3gfe|d>e (3fed c>d (3edc|
B>c (3dcB A>B d>e|f>d e>f e/e/ z3|
f>g (3agf e>f (3gfe|d>e (3fed c>d (3edc|
B>c (3dcB A>B d>e|f>d e>c d/d/z3:|

